!!!COM: Palestrina, Giovanni Perluigi da
!!!OPR: Veni sponsa Christi
!!!OTL: Sanctus
**kern	**kern	**kern	**kern
*ICvox	*ICvox	*ICvox	*ICvox
*Ibass	*Itenor	*Icalto	*Icant
!Bassus	!Tenor	!Altus	!Cantus
*clefF4	*clefGv2	*clefG2	*clefG2
*k[]	*k[]	*k[]	*k[]
*G:mix	*G:mix	*G:mix	*G:mix
*M4/2	*M4/2	*M4/2	*M4/2
=1	=1	=1	=1
0r	2r	0r	0dd
.	1g	.	.
.	2f#	.	.
=2	=2	=2	=2
0r	2g	0r	1b
.	2e	.	.
.	2f	.	1dd
.	2g	.	.
=3	=3	=3	=3
2r	1c	0g	1ee
1c	.	.	.
.	1G	.	1dd
2B	.	.	.
=4	=4	=4	=4
2c	2r	1e	0r
2A	2c	.	.
2B	2d	1g	.
2c	2e	.	.
=5	=5	=5	=5
1F	2.f	1a	2r
.	.	.	1cc
.	4e	.	.
1G	1d	2.g	.
.	.	.	2b
.	.	4f	.
=6	=6	=6	=6
2A	1c	2e	2cc
2F	.	2.a	2a
2G	1r	.	2b
.	.	4g	.
2C	.	[2g	2cc
=7	=7	=7	=7
1D	1r	2g]	2.a
.	.	4f#	.
.	.	4e	4g
2r	[1d	2f#	2a
[2G	.	2g	4b
.	.	.	4cc
=8	=8	=8	=8
2G]	1d]	2b	1dd
2F#	.	2a	.
2G	1B	1g	2r
2E	.	.	2g
=9	=9	=9	=9
2F	1d	1r	2a
2G	.	.	2b
1C	1e	2r	1cc
.	.	[2g	.
=10	=10	=10	=10
0r	1d	2g]	2b
.	.	2f#	4a
.	.	.	4b
.	2.e	2g	4cc
.	.	.	4dd
.	.	2e	2ee
.	4c	.	.
=11	=11	=11	=11
0r	2d	2f	2dd
.	2.e	2g	2b
.	.	1c	1ee
.	4d	.	.
.	[2c	.	.
=12	=12	=12	=12
0G	2c]	2.g	1dd
.	4B	.	.
.	4A	8f	.
.	.	8e	.
.	2B	2d	1g
.	2G	[2e	.
=13	=13	=13	=13
1E	2.g	4e]	0r
.	.	4d	.
.	.	1c	.
.	8f	.	.
.	8e	.	.
1G	2d	.	.
.	[2e	2B	.
=14	=14	=14	=14
1A	4e]	1c	1r
.	4d	.	.
.	1c	.	.
1G	.	2d	2.gg
.	4B	[2g	.
.	4A	.	8ff
.	.	.	8ee
=15	=15	=15	=15
0r	2B	4g]	2dd
.	.	4f	.
.	2c	4e	2.ee
.	.	4d	.
.	1A	1c	.
.	.	.	4dd
.	.	.	[2cc
=16	=16	=16	=16
2r	1G	1d	2cc]
2.G	.	.	4b
.	.	.	4a
.	2r	1g	2b
4G	.	.	.
2E	[2c	.	2cc
=17	=17	=17	=17
2F	4c]	0r	2.dd
.	4c	.	.
2G	2B	.	.
.	.	.	8cc
.	.	.	8b
2F	2c	.	1a
2F	2d	.	.
=18	=18	=18	=18
2C	2e	1r	0g
1c	2c	.	.
.	1d	2r	.
2B	.	[2g	.
=19	=19	=19	=19
1c	4e	4g]	2r
.	4d	4g	.
.	4c	2e	2.cc
.	4B	.	.
1r	2A	2f	.
.	.	.	4cc
.	2G	2g	2b
=20	=20	=20	=20
1r	2A	2f	2cc
.	2B-	2f	2dd
2r	1A	1c	2ee
[2c	.	.	2cc
=21	=21	=21	=21
4c]	1G	2r	1dd
4c	.	.	.
2B	.	2.g	.
2c	1r	.	2ee
.	.	4g	.
2d	.	2f	4dd
.	.	.	4cc
=22	=22	=22	=22
2e	1r	2g	2b
2c	.	2a	2cc
1d	2r	2.f	1a
.	[2d	.	.
.	.	4g	.
=23	=23	=23	=23
0r	4d]	2a	2f
.	4d	.	.
.	2B	1g	2g
.	2c	.	2.a
.	2d	[2f	.
.	.	.	4b
=24	=24	=24	=24
1r	2c	2f]	4cc
.	.	.	4dd
.	2c	2e	1cc
2r	1G	1d	.
[2G	.	.	4b
.	.	.	4a
=25	=25	=25	=25
4G]	2r	1g	2b
4G	.	.	.
2E	2G	.	1cc
2F	2A	2f	.
2G	2B	2d	2b
=26	=26	=26	=26
2F	2.c	2f	2a
2C	.	2e	1g
.	4B	.	.
1D	2A	2.d	.
.	2A	.	2f#
.	.	4d	.
=27	=27	=27	=27
0G	0B	0d	0g
*	*	*	*-
!! Pleni
*Ibass	*Itenor	*Icalto
!Bassus	!Tenor	!Altus
*clefF4	*clefGv2	*clefG2
*k[]	*k[]	*k[]
*G:mix	*G:mix	*G:mix
*M4/2	*M4/2	*M4/2
=28	=28	=28
0r	1g	0r
.	2g	.
.	2g	.
=29	=29	=29
1c	1g	0r
2c	2e	.
2c	[2g	.
=30	=30	=30
1c	4g]	0r
.	4f	.
.	4e	.
.	4d	.
2A	4c	.
.	4d	.
[2c	4e	.
.	4f	.
=31	=31	=31
4c]	1e	0r
4B	.	.
4A	.	.
4G	.	.
4F	2d	.
4G	.	.
[2A	2c	.
=32	=32	=32
2A]	1B	1r
2G#	.	.
2.A	4A	1cc
.	4B	.
.	4c	.
4B	4d	.
=33	=33	=33
4c	1e	2cc
4B	.	.
4A	.	2cc
4G	.	.
[1F	2r	1cc
.	2f	.
=34	=34	=34
1F]	2f	2a
.	2f	2.cc
2r	1f	.
.	.	4b-
2F	.	4a
.	.	4g
=35	=35	=35
2F	2d	4f
.	.	4g
2F	2c	4a
.	.	4b
1F	1f	1a
=36	=36	=36
2C	2e	2g
2D	1d	2f
1A	.	1e
.	2c	.
=37	=37	=37
0D	2.f	1d
.	4e	.
.	2d	2r
.	2c	[2a
=38	=38	=38
1E	1B	2a]
.	.	2g
2r	1A	2a
[2A	.	[2cc
=39	=39	=39
2A]	1r	2cc]
2G	.	2b
2A	2r	1a
[2c	[2e	.
=40	=40	=40
2c]	2e]	1g
2B	2d	.
2A	2e	1r
4G	[2g	.
4A	.	.
=41	=41	=41
4B	2g]	1r
4c	.	.
1d	2f	.
.	1e	2r
2c	.	[2a
=42	=42	=42
2B	2d	2a]
2c	1g	2g
1A	.	2a
.	2f	[2cc
=43	=43	=43
1G	2e	2cc]
.	2d	2b
2.A	2c	1a
.	[2f	.
4B	.	.
=44	=44	=44
1c	2f]	0g
.	2e	.
2B	2d	.
2c	[2g	.
=45	=45	=45
1d	2g]	2r
.	2f	1d
2.A	1e	.
.	.	2c
4G	.	.
=46	=46	=46
4F	2r	2d
4E	.	.
2D	1d	1f
1A	.	.
.	2c	2e
=47	=47	=47
2r	2d	2.d
1D	1f	.
.	.	4c
.	.	2d
2C	2e	2e
=48	=48	=48
2D	2d	2f
1F	4c	1a
.	4B	.
.	4c	.
.	4B	.
2E	4A	[2g
.	4G	.
=49	=49	=49
1D	2A	2g]
.	2B	2f
2C	1c	1e
[2c	.	.
=50	=50	=50
2c]	2G	1d
2B	1g	.
2c	.	2r
2d	2f	[2a
=51	=51	=51
1B	1d	2a]
.	.	2g
2r	1f	2a
[2A	.	[2cc
=52	=52	=52
2A]	0e	2cc]
2G	.	2b
2A	.	2a
[2c	.	4g
.	.	4f
=53	=53	=53
2c]	2r	4g
.	.	4f
2B	1d	4e
.	.	4d
1A	.	1e
.	2c	.
=54	=54	=54
2G	2d	2r
4F	1f	1a
4G	.	.
4A	.	.
4B	.	.
2c	2e	2g
=55	=55	=55
2F	2d	2a
2A	2c	1cc
1G	1d	.
.	.	2b
=56	=56	=56
1C	2.c	2a
.	.	1g
.	4B	.
1D	1A	.
.	.	2f
=57	=57	=57
1E	1G	2.g
.	.	4f
1C	1c	1e
=58	=58	=58
0G	0B	0d
*-	*-	*-
!! Hosanna
**kern	**kern	**kern	**kern
*ICvox	*ICvox	*ICvox	*ICvox
*Ibass	*Itenor	*Icalto	*Icant
!Bassus	!Tenor	!Altus	!Cantus
*clefF4	*clefGv2	*clefG2	*clefG2
*k[]	*k[]	*k[]	*k[]
*G:mix	*G:mix	*G:mix	*G:mix
*M3/2	*M3/2	*M3/2	*M3/2
=59	=59	=59	=59
1r	1r	2g	1r
.	.	2e	.
2r	2r	2f	2r
=60	=60	=60	=60
1r	1r	1g	2dd
.	.	.	2b
2r	2r	2a	2cc
=61	=61	=61	=61
1r	1r	2f	2dd
.	.	2e	2ee
2r	2r	2a	2cc
=62	=62	=62	=62
1r	2r	1g	2b
.	2r	.	1a
2r	2d	2f#	.
=63	=63	=63	=63
2G	2B	1g	2g
2E	2c	.	2r
2F	2d	2r	2dd
=64	=64	=64	=64
2G	2e	2g	2b
2A	2c	2e	2cc
2F	2A	2f	2dd
=65	=65	=65	=65
2E	1c	2g	2ee
1D	.	2a	1ff
.	2B	4f	.
.	.	4g	.
=66	=66	=66	=66
2C	1c	4a	2.ee
.	.	4b	.
2c	.	1cc	.
.	.	.	4dd
2A	2r	.	4ee
.	.	.	4ff
=67	=67	=67	=67
2B	1r	2b	1gg
2c	.	1a	.
2d	2r	.	2ff#
=68	=68	=68	=68
1G	2d	2b	1gg
.	2B	2g	.
2r	2c	2e	2r
=69	=69	=69	=69
1r	2d	2f	2dd
.	2e	2g	2b
2r	2c	2a	2cc
=70	=70	=70	=70
1r	2B	2.g	2dd
.	1A	.	2ee
.	.	8f#	.
.	.	8e	.
2r	.	2f#	2cc
=71	=71	=71	=71
2G	1G	1g	1b
2E	.	.	.
2F	2r	4f	2dd
.	.	4e	.
=72	=72	=72	=72
2G	2g	2d	2b
2A	2e	2.c	2cc
2F	2f	.	2a
.	.	4A	.
=73	=73	=73	=73
2E	2g	2B	2g
1D	2a	1d	4f
.	.	.	4g
.	2f	.	4a
.	.	.	4b
=74	=74	=74	=74
2C	2e	1G	1cc
1G	1d	.	.
.	.	2r	2b
=75	=75	=75	=75
1C	1c	2g	2cc
.	.	2e	2r
2r	2r	2f	2dd
=76	=76	=76	=76
1r	1r	2g	2b
.	.	2a	2cc
2r	2r	2f	[2dd
=77	=77	=77	=77
2G	1r	1g	2dd]
2E	.	.	2ee
2F	2r	2a	2cc
=78	=78	=78	=78
1G	2d	1g	2b
.	2B	.	2dd
2A	2c	2e	4cc
.	.	.	4b
=79	=79	=79	=79
2F	2d	2f	4a
.	.	.	4b
2E	2e	2g	4cc
.	.	.	4b
2F	2c	4f	2a
.	.	4e	.
=80	=80	=80	=80
2G	2B	4d	1g
.	.	4c	.
1D	1A	1d	.
.	.	.	2f#
=81	=81	=81	=81
[1.G	[1.B	[1.d	[1.g
=82	=82	=82	=82
2G]	2B]	2d]	2g]
==	==	==	==
*-	*-	*-	*-
!!!CDT: 1525/^1526/-1594/2/2
!!!OCY: Italia
!!!AGN: Mass (Parody)
!!!AST: renaissance, vocal
!!!ASW: Motet 1563 (Palestrina)
!!!PWK: Masses, Book 9
!!!RNB: Cadence finals: G
!!!YOR: Le Opere Complete, v. 25, p. 30
!!!YOO: Rome, Italy: Fratelli Scalera
!!!END: 1992//
!!!EED: John Miller
!!!YEC: Copyright 2000, John Miller
!!!YEN: United States of America
!!!YEM: Rights to all derivative electronic formats reserved.
!!!YEM: Refer to licensing agreement for further details.
!!!YEM: This file must be accompanied by the licensing agreement.
!!!YEM: A copy of the licensing agreement may be found at http://www.music-cog.ohio-state.edu/HumdrumDatabases/Palestrina/license.txt
!!!EMD: converted to Humdrum by Bret Aarden
